X:1
P:Rasbitahya Gisn (A Broken Life)
C:Russia
C:Kammen Collection, Vol. 1
C:Arr. T. Traub, 22-Apr-03
Z:Kammen Collection, Vol. 1
Z:use 65% scaling
R:Waltz
M:3/4
K:Cm
L: 1/8
G2 |: "Cm" e2 d2 c2|"G" =B2 c2 d2|"Cm"d6-|c6|z2 G-cc-e|e-gg-ff-e|"G"e6-|d4 G2|
f2 e2 d2|c2 d2 e2|e6-|d6|z2 =B-dd-f|f-aa-gg-f|"Cm"f6-|e4 G2|
"Cm" e2 d2 c2|"G" =B2 c2 d2|"Cm"d6-|c6|"Fm" z2 c-ff-a|a-c'c'-bb-a|"Cm"a6-|g6|
"Fm"fgag a2|"Cm"efg^f g2|"G"def=e f2|"Cm"cd_ed e2|"G"d4-c2|z2 e3 d|1 "Cm"c6-|c2 z2 G:|2 "Cm"c6-|c2 "G"gfed|
|: "Cm" .c2 z2 .e2|"G" z2 gfed|"Cm" .c2 z2 .e2|"Fm" z2 agfe|"G".d2 z2 .f2|"G"z2 gfed|"Cm" .c2 z2 .e2|
"G" z2 gfed|"Cm" .c2 z2 .e2|z2 fedc|"G".=B2 z2 .d2|z2 edc=B|1 "Cm"c6-|"G"c2 gfed:|2 "Cm"c6-|c2 G2 G2||
L: 1/4
|: "Cm"c3|d2 e|G3-|G A-G|"Cm"c3|d2 e|"D7"e3-|"G"d3|d3| e2 f|A3-|A G F|d2 c|=B2 A|"G"G3-|G3|
 "Cm"c3|d2 e|G3-|G A-G|"Cm"c3|d2 e|"D7"e3-|"G"d3|d3| e2 f|A3-|G3|f e d|d c =B|1 "Cm"c3-|c G G:|2 "Cm"c3-|c B/=B/c/d/|
|: "Eb"e z d|f z e|"Bb" e z d|z B/c/d/e/|"Bb"f z =e|g z f|"Eb"f z e|z B=Bcd|"Eb"e z d|
f z e|"Ab"d z c|c' z a|1 "Eb"g z/ g/ g|"Bb"f/a/g/f/e/d/|"Bb"g z/ g/ g|g B/=B/c/d/ :|2 "Eb"g z/ g/ g|"Bb"f b d|"Eb"e z/ e/ e|"G"g z G |]
